X:11928
T:no name
R:reel
S:Kevin Finucane
Z:id:hn-reel-714
M:C|
K:G
DE (3=FED G=FDC|B,G,B,C DE=FD|G3B dBGB|A=FDE FEDC|
DE (3=FED G=FDC|B,G,B,C DE=FD|G3B AG^FG|1 DGG^F G3=F:|2 DGG^F GABd||
|:gddB GBdg|bgag e3f|gBBA BcBA|GBdB A2Bd|
gddB GBdg|bgag e2ef|gd~d2 d^cdG|1 FGAF GABd:|2 FGAF G3=F||
% bar 4 also |A=FDE FDCE|
